X: 112
M: 2/4
L: 1/16
K: G
vG2vg>ud  "4"edBG | vG2vg>ud edBG | DGBG AGBG | DGBd cBAG |
|: vB3uc .d2.d2 | cBcd "4".e2.e2 | A3B cBcA | Ggfa .g2.g2 |
dBdg eceg | fdfa gfge | dBdg ecAF | G2G2G2 :|


